icons/svg/shopping/dive.svg

<?xml version="1.0" encoding="UTF-8" standalone="no"?>
<!-- Created with Inkscape (http://www.inkscape.org/) -->

<svg
   xmlns:dc="http://purl.org/dc/elements/1.1/"
   xmlns:cc="http://creativecommons.org/ns#"
   xmlns:rdf="http://www.w3.org/1999/02/22-rdf-syntax-ns#"
   xmlns:svg="http://www.w3.org/2000/svg"
   xmlns="http://www.w3.org/2000/svg"
   xmlns:sodipodi="http://sodipodi.sourceforge.net/DTD/sodipodi-0.dtd"
   xmlns:inkscape="http://www.inkscape.org/namespaces/inkscape"
   version="1.0"
   width="580"
   height="580"
   id="svg2"
   sodipodi:version="0.32"
   inkscape:version="0.48.4 r9939"
   sodipodi:docname="bedding.svg"
   inkscape:output_extension="org.inkscape.output.svg.inkscape">
  <metadata
     id="metadata10">
    <rdf:RDF>
      <cc:Work
         rdf:about="">
        <dc:format>image/svg+xml</dc:format>
        <dc:type
           rdf:resource="http://purl.org/dc/dcmitype/StillImage" />
        <cc:license
           rdf:resource="http://web.resource.org/cc/PublicDomain" />
        <dc:language>en</dc:language>
        <dc:title></dc:title>
      </cc:Work>
    </rdf:RDF>
  </metadata>
  <sodipodi:namedview
     inkscape:window-height="739"
     inkscape:window-width="1332"
     inkscape:pageshadow="2"
     inkscape:pageopacity="0.0"
     guidetolerance="10.0"
     gridtolerance="10.0"
     objecttolerance="10.0"
     borderopacity="1.0"
     bordercolor="#666666"
     pagecolor="#ffffff"
     id="base"
     showgrid="false"
     inkscape:zoom="0.7071068"
     inkscape:cx="161.90685"
     inkscape:cy="264.15597"
     inkscape:window-x="34"
     inkscape:window-y="1024"
     inkscape:current-layer="svg2"
     inkscape:window-maximized="1" />
  <defs
     id="defs4">
    <clipPath
       id="clipoutline2"
       clipPathUnits="userSpaceOnUse">
      <path
         d="M 55.8,12 L 56.56,12.16 C 65.4,9.22 85.24,20.8 80.82,31.12 C 79.7,32.74 79.89,35.62 81.24,37.43 L 56.43,62.25 C 55.04,60.86 51.95,60.89 50.53,62.25 L 9.5,101.63 C 5.76,105.22 8.7,108.27 10.28,109.88 L 17.64,117.24 C 19.25,118.84 23.5,121 26.52,117.8 L 65.24,76.99 C 66.59,75.57 66.6,72.52 65.24,71.12 C 65.24,71.12 65.25,71.1 65.24,71.1 L 90.15,46.2 C 92.78,48.57 95.263827,48.774854 97.62,48.13 C 102.17057,46.884568 104.70725,51.336643 107.43,54.59 L 106.2,55.8 C 104.38,57.64 104.55,60.74 106.59,62.78 C 108.63,64.82 111.74,64.99 113.56,63.17 L 121.7,55.04 C 123.52,53.2 123.35,50.1 121.3,48.07 C 119.46,46.22 116.79,45.98 114.93,47.3 C 109.35,41.04 112.28,40.1 104.92,31.95 L 91.13,17.86 C 81.2,8.12 68.3,8.13 55.8,12 z"
         id="outline2" />
    </clipPath>
    <clipPath
       id="clipoutline1"
       clipPathUnits="userSpaceOnUse">
      <path
         d="M 22.42,17.2 L 35.38,30.15 L 32.88,38.93 L 24.1,41.43 L 11.14,28.47 L 5.28,34.33 L 20.17,55.79 L 37.73,52.45 L 99.36,118.07 C 108.8,127.58 121.53,113.32 112.7,105.2 L 46.85,42.92 L 50.86,25.16 L 28.72,10.89 L 22.42,17.2 z M 103.48,109.17 C 105.16,107.49 107.88,107.49 109.56,109.17 C 111.24,110.85 111.24,113.57 109.56,115.25 C 107.88,116.92 105.16,116.92 103.48,115.25 C 101.8,113.57 101.8,110.85 103.48,109.17 z"
         id="outline1" />
    </clipPath>
    <inkscape:perspective
       sodipodi:type="inkscape:persp3d"
       inkscape:vp_x="0 : 290 : 1"
       inkscape:vp_y="0 : 1000 : 0"
       inkscape:vp_z="580 : 290 : 1"
       inkscape:persp3d-origin="290 : 193.33333 : 1"
       id="perspective12" />
    <style
       type="text/css"
       id="style6">
   
    .fil0 {fill:#EF7900}
   
  </style>
    <inkscape:perspective
       id="perspective6807"
       inkscape:persp3d-origin="29.116032 : 19.410688 : 1"
       inkscape:vp_z="58.232063 : 29.116032 : 1"
       inkscape:vp_y="0 : 1000 : 0"
       inkscape:vp_x="0 : 29.116032 : 1"
       sodipodi:type="inkscape:persp3d" />
    <inkscape:perspective
       id="perspective6954"
       inkscape:persp3d-origin="290 : 193.33333 : 1"
       inkscape:vp_z="580 : 290 : 1"
       inkscape:vp_y="0 : 1000 : 0"
       inkscape:vp_x="0 : 290 : 1"
       sodipodi:type="inkscape:persp3d" />
    <marker
       viewBox="0 0 10 10"
       refY="5"
       refX="10"
       orient="auto"
       markerWidth="4"
       markerUnits="strokeWidth"
       markerHeight="3"
       id="ArrowStart">
      <path
         id="path2295"
         d="M 10 0 L 0 5 L 10 10 z" />
    </marker>
    <marker
       viewBox="0 0 10 10"
       refY="5"
       refX="0"
       orient="auto"
       markerWidth="4"
       markerUnits="strokeWidth"
       markerHeight="3"
       id="ArrowEnd">
      <path
         id="path2292"
         d="M 0 0 L 10 5 L 0 10 z" />
    </marker>
    <inkscape:perspective
       id="perspective7597"
       inkscape:persp3d-origin="178.5405 : 158.483 : 1"
       inkscape:vp_z="357.08099 : 237.7245 : 1"
       inkscape:vp_y="0 : 1000 : 0"
       inkscape:vp_x="0 : 237.7245 : 1"
       sodipodi:type="inkscape:persp3d" />
  </defs>
  <g
     id="g1327"
     transform="translate(0.5,-0.5)">
    <path
       d="M 66.275,1.768 C 24.94,1.768 1.704,23.139 1.704,66.804 l 0,450.123 c 0,40.844 20.894,62.229 62.192,62.229 l 452.024,0 c 41.307,0 62.229,-20.316 62.229,-62.229 l 0,-450.123 c 0,-42.601 -20.922,-65.036 -63.522,-65.036 -0.003,0 -448.494,-0.143 -448.352,0 z"
       style="fill:#111111;stroke:#eeeeee;stroke-width:3.40799999"
       id="path1329"
       inkscape:connector-curvature="0" />
  </g>
  <g
     id="g2319"
     transform="translate(879.29125,36.805119)">
    <path
       id="path2323"
       style="fill:#ffffff;stroke:none"
       d="" />
  </g>
  <g
     id="g2325"
     transform="translate(879.29125,36.805119)">
    <path
       id="path2329"
       style="fill:#ffffff;stroke:none"
       d="" />
  </g>
  <path
     style="fill:none;stroke:#ffffff;stroke-width:34.94228363;stroke-linecap:round;stroke-linejoin:round;stroke-miterlimit:10;stroke-opacity:1"
     inkscape:connector-curvature="0"
     stroke-miterlimit="10"
     d="m 271.47278,131.26367 c 0,-29.99944 -22.94074,-52.940188 -52.94017,-52.940188 -29.99944,0 -52.94018,22.940748 -52.94018,52.940188 0,8.82336 0,44.11681 0,52.94018 0,29.99943 22.94074,70.5869 52.94018,70.5869 29.99943,0 52.94017,-40.58747 52.94017,-70.5869 0,-8.82337 0,-44.11682 0,-52.94018 z"
     id="path3" />
  <path
     style="fill:#ffffff;fill-opacity:1;stroke:none"
     inkscape:connector-curvature="0"
     d="m 365.00044,473.61017 c -29.99943,5.29402 -49.41084,26.4701 -58.2342,38.82281 -3.52935,5.29402 -12.3527,8.82335 -19.4114,5.29402 -12.3527,-5.29402 -35.29346,-10.58804 -67.05756,-10.58804 -31.76411,0 -54.70485,5.29402 -67.05756,10.58804 -7.05869,3.52933 -15.88205,0 -21.17608,-5.29402 -8.82335,-14.11739 -28.23475,-33.52879 -58.234187,-38.82281 -8.823366,-1.76467 -14.117383,-8.82335 -12.35271,-15.88205 L 165.59243,131.26367 c 0,0 8.82336,123.52708 52.94018,123.52708 44.11682,0 52.94017,-123.52708 52.94017,-123.52708 l 105.88037,324.69978 c 1.76467,8.82337 -3.52935,15.88205 -12.35271,17.64672 z"
     id="path5" />
  <path
     style="fill:none;stroke:#ffffff;stroke-width:34.94228363;stroke-linecap:round;stroke-linejoin:round;stroke-miterlimit:10;stroke-opacity:1"
     inkscape:connector-curvature="0"
     stroke-miterlimit="10"
     d="m 412.64661,247.73206 c 0,-8.82336 0,-105.88036 0,-116.46839 0,-29.99944 -22.94075,-52.940188 -52.94018,-52.940188 -12.35271,0 -22.94076,3.529344 -31.76412,10.588032"
     id="path9" />
  <path
     style="fill:#ffffff;fill-opacity:1"
     inkscape:connector-curvature="0"
     d="M 518.52696,455.96345 412.64661,131.26367 c 0,0 -8.82337,123.52708 -52.94018,123.52708 -21.17608,0 -42.35215,-40.58747 -42.35215,-40.58747 l 77.6456,236.46615 c 1.76466,8.82336 1.76466,17.64672 -3.52935,24.70542 -5.29402,7.05869 -14.11738,14.11737 -22.94075,15.88205 -15.88205,3.52935 -26.47008,10.58803 -35.29345,17.64673 8.82337,-1.76467 17.64673,-1.76467 26.4701,-1.76467 33.52877,0 54.70485,5.29402 67.05756,10.58804 7.05868,3.52933 15.88205,0 19.41139,-5.29402 8.82337,-14.11739 26.4701,-33.52879 58.23421,-38.82281 10.58803,-1.76467 15.88205,-8.82335 14.11737,-17.64672 z"
     id="path11" />
</svg>

<svg width="580" height="580" viewBox="0 0 580 580" fill="none" xmlns="http://www.w3.org/2000/svg">
<g clip-path="url(#clip0)">
<path d="M66.7751 1.26766C25.4401 1.26766 2.2041 22.6387 2.2041 66.3037V516.427C2.2041 557.271 23.0981 578.656 64.3961 578.656H516.42C557.727 578.656 578.649 558.34 578.649 516.427V66.3037C578.649 23.7027 557.727 1.26766 515.127 1.26766C515.124 1.26766 66.6331 1.12466 66.7751 1.26766V1.26766Z" fill="#111111" stroke="#EEEEEE" stroke-width="3.408"/>
<path d="M271.473 131.263C271.473 101.264 248.532 78.3232 218.532 78.3232C188.533 78.3232 165.592 101.264 165.592 131.263C165.592 140.087 165.592 175.38 165.592 184.204C165.592 214.203 188.533 254.791 218.532 254.791C248.532 254.791 271.473 214.203 271.473 184.204C271.473 175.38 271.473 140.087 271.473 131.263Z" stroke="white" stroke-width="34.9423" stroke-miterlimit="10" stroke-linecap="round" stroke-linejoin="round"/>
<path d="M365 473.61C335.001 478.904 315.59 500.08 306.766 512.433C303.237 517.727 294.414 521.256 287.355 517.727C275.002 512.433 252.061 507.139 220.297 507.139C188.533 507.139 165.592 512.433 153.24 517.727C146.181 521.256 137.358 517.727 132.064 512.433C123.24 498.316 103.829 478.904 73.8295 473.61C65.0061 471.845 59.7121 464.787 61.4768 457.728L165.592 131.264C165.592 131.264 174.416 254.791 218.533 254.791C262.649 254.791 271.473 131.264 271.473 131.264L377.353 455.963C379.118 464.787 373.824 471.845 365 473.61Z" fill="white"/>
<path d="M412.647 247.732C412.647 238.908 412.647 141.851 412.647 131.263C412.647 101.264 389.706 78.3232 359.706 78.3232C347.354 78.3232 336.766 81.8526 327.942 88.9113" stroke="white" stroke-width="34.9423" stroke-miterlimit="10" stroke-linecap="round" stroke-linejoin="round"/>
<path d="M518.527 455.963L412.647 131.264C412.647 131.264 403.823 254.791 359.707 254.791C338.531 254.791 317.354 214.203 317.354 214.203L395 450.669C396.765 459.493 396.765 468.316 391.471 475.375C386.177 482.434 377.353 489.492 368.53 491.257C352.648 494.786 342.06 501.845 333.237 508.904C342.06 507.139 350.883 507.139 359.707 507.139C393.235 507.139 414.411 512.433 426.764 517.727C433.823 521.256 442.646 517.727 446.176 512.433C454.999 498.316 472.646 478.904 504.41 473.61C514.998 471.845 520.292 464.787 518.527 455.963V455.963Z" fill="white"/>
</g>
<defs>
<clipPath id="clip0">
<path d="M0 0H580V580H0V0Z" fill="white"/>
</clipPath>
</defs>
</svg>
